!!! OTL: Literature73
!!! Chapter: 5
!!! Section: II
!!! Page: 361
!!! Mode: 
!!! Encoder: ESM
**kern
*staff1
*I"Piano
=1-
*clefG2
*k[b-e-]
*B-:
*M2/4
4r
8.f/L
16e-/Jk
=2
8d/L
8d/J
8d/L
8d/J
=3
4d/
8B-/L
8c/J
=4
8d/L
8c/J
8B-/L
8d/J
=5
4c/
8.e-/L
16d/Jk
=6
8c/L
8c/J
8c/L
8c/J
=7
4c/
8c/L
8c/J
=8
8f/L
8e-/J
8d/L
8c/J
=9
4B-/
4r
==
*-
